X:1
T:[ID 2-23a]
T:[ID 2-23a]
T:Bezeichnung standardisiert: Waltzer Germane; Angeloise oder Waltzer In dieser Quelle auch als: Waltzer
T:Urheber unbekannt Datum in der hier transkribierten schriftlichen Quelle: 1767
C:Urheber unbekannt
C:Datum in der hier transkribierten schriftlichen Quelle: 1767
L:1/8
M:3/4
K:D
V:1 treble 
V:1
 A2 | (a2 f2) .f2 | (b2 g2) .g2 | (a2 f2) .f2 | gfed c2 | (a2 f2) .f2 | (b2 g2) .g2 | a2 f2 eg | %8
 f3 :: g2 | gagfed | c=Bcdef | gagfed | c4 fg | (a2 f2) .f2 | (b2 g2) .g2 | a2 f2 eg | f3 :| %18

